X:644
T: "Hochzeitslied"
N: Z1325
O: Europa, Mitteleuropa, Deutschland, Bayern
R: Zech -, Schalks -, Hochzeits - Lied; Staende -, Bauern - Lied, Jodler
M: 3/4
L: 1/8
K: G
BG | FAADFA | cBBD
GB | dccDFA | G2z2
BG | FAADFA | cBBD
GB | dccDFA | G2z2
FA | eddDFA | cBBD
GB | dccDFA | B2z2
FA | eddDFA | cBBD
GB | dccDFA | G2z2
(3BAG | FAA3c | edB3
G | dcA3F | cBG2
(3BAG | FAA3c | edB3
G | dcAcFA | G2z2

@@@ Tune index: 10402
